24x24/actions/gnumeric-autofilter-delete.svg

<svg viewBox="0 0 24 24" xmlns="http://www.w3.org/2000/svg"><path d="m6 4-1 1v1.305l5 7.062v3.673l3 2.226v-1.246l-2-1.485v-3.535h-.035l-4.965-7.012v-.988h12v.988l-4.965 7.012h1.225l4.74-6.695v-1.305l-1-1zm1 2 2 3v-2l2-1z" fill="#8b9cbe"/><path d="m14.99 14-.99.99 2.01 2.01-2.01 2.01.99.99 2.01-2.01 2.01 2.01.99-.99-2.01-2.01 2.01-2.01-.99-.99-2.01 2.01z" fill="#da4453"/></svg>

<svg xmlns="http://www.w3.org/2000/svg" viewBox="0 0 24 24"><path style="fill:currentColor;fill-opacity:1;stroke:none;color:#8b9cbe" d="M6 4 5 5v1.305l5 7.062v3.673l3 2.226V18.02l-2-1.485V13h-.035L6 5.988V5h12v.988L13.035 13h1.225L19 6.305V5l-1-1H6zm1 2 2 3V7l2-1H7z"/><path style="fill:#da4453" d="m14.99 14-.99.99L16.01 17 14 19.01l.99.99L17 17.99 19.01 20l.99-.99L17.99 17 20 14.99l-.99-.99L17 16.01 14.99 14z"/></svg>
